img/paint-palette@hover.svg

<svg width="50" height="50" viewBox="0 0 50 50" fill="none" xmlns="http://www.w3.org/2000/svg">
<path d="M33 24.0234C33.5393 24.0234 33.9766 23.5862 33.9766 23.0469C33.9766 22.5075 33.5393 22.0703 33 22.0703C32.4607 22.0703 32.0234 22.5075 32.0234 23.0469C32.0234 23.5862 32.4607 24.0234 33 24.0234Z" fill="url(#paint0_linear)"/>
<path d="M33.1679 27.2313C32.6348 27.1521 32.1378 27.5207 32.0588 28.0542C31.7919 29.8565 30.2685 31.3512 27.9837 32.0528C25.5416 32.8027 22.1519 32.5513 20.084 30.2995C19.7192 29.9022 19.1014 29.876 18.7042 30.2407C18.307 30.6055 18.2807 31.2233 18.6454 31.6205C19.8425 32.9241 21.4684 33.8125 23.3473 34.1898C24.0108 34.323 24.699 34.3891 25.3918 34.3891C26.4619 34.3891 27.5426 34.2314 28.5571 33.9199C31.5795 32.9918 33.6109 30.9061 33.9908 28.3404C34.0698 27.8069 33.7014 27.3103 33.1679 27.2313Z" fill="url(#paint1_linear)"/>
<path d="M46.7408 18.5948C44.9658 16.5371 42.516 15.2029 39.5672 14.6671C42.3905 12.7618 44.8256 10.8657 46.5619 9.21123C49.2093 6.68867 50.097 4.91602 49.3558 3.63291C48.531 2.20381 46.15 2.21367 41.8623 3.66426C38.2396 4.88984 33.7265 7.01846 29.1546 9.65811C28.3649 10.114 27.5825 10.5808 26.8171 11.0512C26.2494 9.44795 26.6239 7.6166 27.8764 6.02861C28.8146 4.83916 29.024 3.32842 28.4232 2.08574C27.7933 0.783301 26.4109 0.00351562 24.7229 0H24.677C18.7194 0 12.8921 2.35068 8.26877 6.61904C3.63967 10.8927 0.805686 16.5501 0.288889 22.549C-0.332889 29.7736 1.97649 36.6422 6.79143 41.8894C11.5213 47.0438 18.2269 50 25.1887 50C28.9367 50 32.4553 49.3143 35.6464 47.9616C38.5644 46.7248 41.1556 44.9588 43.3482 42.7124C45.3811 40.6295 46.9839 38.2317 48.1121 35.5855C49.1858 33.0676 49.7723 30.3992 49.8086 27.869C49.8615 24.1896 48.8006 20.9826 46.7408 18.5948ZM26.9313 13.2801C27.9649 12.6282 29.0413 11.9787 30.1311 11.3496C34.3582 8.90898 38.5676 6.89873 41.9839 5.68906C45.7447 4.35752 47.2844 4.44443 47.6434 4.61631C47.6123 4.84355 47.3301 5.85459 44.8622 8.12725C42.8015 10.025 39.7922 12.2567 36.3888 14.4113C35.3129 15.0927 34.1932 15.7698 33.0609 16.4237C31.4998 17.3247 29.94 18.1672 28.409 18.9386C28.1035 18.0471 27.712 17.1819 27.2356 16.3565C26.7738 15.5566 26.2381 14.8057 25.6394 14.1108C26.0631 13.8331 26.4943 13.5554 26.9313 13.2801ZM26.6397 19.8049C23.8822 21.1126 21.3519 22.1096 19.3313 22.6879C19.2261 22.1827 19.0411 21.6944 18.7787 21.2395C18.53 20.8084 18.218 20.4229 17.8573 20.0905C19.37 18.6307 21.4991 16.9393 24.0062 15.2089C24.5882 15.8594 25.1042 16.5709 25.5442 17.3329C25.9991 18.121 26.3654 18.9499 26.6397 19.8049ZM47.8557 27.841C47.7164 37.5586 39.0107 48.0469 25.1887 48.0469C18.7725 48.0469 12.5915 45.3213 8.23059 40.5689C3.78987 35.7297 1.66067 29.3896 2.23489 22.7166C3.22112 11.2676 13.2886 1.95312 24.677 1.95312H24.7208C25.6551 1.95508 26.3637 2.31328 26.6648 2.93604C26.9416 3.5085 26.8213 4.2124 26.3428 4.81904C24.5827 7.05049 24.1413 9.79492 25.1358 12.1089C24.6122 12.4462 24.0977 12.785 23.6005 13.121C23.5982 13.1226 23.5958 13.1241 23.5936 13.1257C20.4882 15.2211 17.8659 17.3054 16.1212 19.0594C14.798 18.6071 13.3441 18.739 12.1083 19.4522C10.0794 20.6242 7.41535 26.0856 6.90198 27.1686C6.76448 27.4584 6.77824 27.7974 6.9386 28.0752C7.09905 28.353 7.38567 28.5344 7.70539 28.5604C8.24514 28.6041 9.77785 28.7146 11.4838 28.7146C13.5539 28.7146 15.8789 28.5518 16.9912 27.9093C18.1961 27.2138 19.0313 26.0517 19.3205 24.7157C21.7154 24.0871 24.8444 22.8573 28.2332 21.2062C30.132 20.2821 32.0847 19.2422 34.0374 18.1152C35.028 17.5432 36.0072 16.9534 36.959 16.3586C36.9648 16.3589 36.9703 16.3598 36.9761 16.36C45.1157 16.5934 47.9331 22.4438 47.8557 27.841ZM17.4748 23.8643C17.4123 24.8464 16.8666 25.7261 16.0147 26.2179C15.0911 26.7514 11.9185 26.8232 9.3135 26.7041C10.5122 24.3893 12.1606 21.6777 13.0851 21.1437C13.9579 20.6398 15.0132 20.6178 15.9085 21.0849C16.4006 21.3411 16.808 21.732 17.0869 22.2155C17.3771 22.7185 17.5112 23.2886 17.4748 23.8643Z" fill="url(#paint2_linear)"/>
<path d="M17.3755 6.03906C15.2216 6.03906 13.4692 7.79141 13.4692 9.94531C13.4692 12.0992 15.2216 13.8516 17.3755 13.8516C19.5294 13.8516 21.2817 12.0992 21.2817 9.94531C21.2817 7.79141 19.5294 6.03906 17.3755 6.03906ZM17.3755 11.8984C16.2985 11.8984 15.4224 11.0223 15.4224 9.94531C15.4224 8.86836 16.2985 7.99219 17.3755 7.99219C18.4524 7.99219 19.3286 8.86836 19.3286 9.94531C19.3286 11.0223 18.4524 11.8984 17.3755 11.8984Z" fill="url(#paint3_linear)"/>
<path d="M12.4927 32.2803C10.3388 32.2803 8.58643 34.0326 8.58643 36.1865C8.58643 38.3404 10.3388 40.0928 12.4927 40.0928C14.6466 40.0928 16.3989 38.3404 16.3989 36.1865C16.3989 34.0326 14.6466 32.2803 12.4927 32.2803ZM12.4927 38.1396C11.4157 38.1396 10.5396 37.2635 10.5396 36.1865C10.5396 35.1096 11.4157 34.2334 12.4927 34.2334C13.5696 34.2334 14.4458 35.1096 14.4458 36.1865C14.4458 37.2635 13.5696 38.1396 12.4927 38.1396Z" fill="url(#paint4_linear)"/>
<path d="M22.2583 38.1396C20.1044 38.1396 18.3521 39.892 18.3521 42.0459C18.3521 44.1998 20.1044 45.9521 22.2583 45.9521C24.4122 45.9521 26.1646 44.1998 26.1646 42.0459C26.1646 39.892 24.4122 38.1396 22.2583 38.1396ZM22.2583 43.999C21.1813 43.999 20.3052 43.1229 20.3052 42.0459C20.3052 40.9689 21.1813 40.0928 22.2583 40.0928C23.3353 40.0928 24.2114 40.9689 24.2114 42.0459C24.2114 43.1229 23.3353 43.999 22.2583 43.999Z" fill="url(#paint5_linear)"/>
<path d="M33.9771 36.1865C31.8231 36.1865 30.0708 37.9389 30.0708 40.0928C30.0708 42.2467 31.8231 43.999 33.9771 43.999C36.131 43.999 37.8833 42.2467 37.8833 40.0928C37.8833 37.9389 36.131 36.1865 33.9771 36.1865ZM33.9771 42.0459C32.9001 42.0459 32.0239 41.1697 32.0239 40.0928C32.0239 39.0158 32.9001 38.1396 33.9771 38.1396C35.054 38.1396 35.9302 39.0158 35.9302 40.0928C35.9302 41.1697 35.054 42.0459 33.9771 42.0459Z" fill="url(#paint6_linear)"/>
<path d="M41.7896 26.4209C39.6356 26.4209 37.8833 28.1732 37.8833 30.3271C37.8833 32.4811 39.6356 34.2334 41.7896 34.2334C43.9435 34.2334 45.6958 32.4811 45.6958 30.3271C45.6958 28.1732 43.9435 26.4209 41.7896 26.4209ZM41.7896 32.2803C40.7126 32.2803 39.8364 31.4041 39.8364 30.3271C39.8364 29.2502 40.7126 28.374 41.7896 28.374C42.8665 28.374 43.7427 29.2502 43.7427 30.3271C43.7427 31.4041 42.8665 32.2803 41.7896 32.2803Z" fill="url(#paint7_linear)"/>
<defs>
<linearGradient id="paint0_linear" x1="32.0234" y1="23.0574" x2="34.0538" y2="23.0301" gradientUnits="userSpaceOnUse">
<stop stop-color="#FCAF45"/>
<stop offset="0.197917" stop-color="#F77737"/>
<stop offset="0.395833" stop-color="#FD1D1D"/>
<stop offset="0.59375" stop-color="#C13584"/>
<stop offset="0.796875" stop-color="#833AB4"/>
<stop offset="1" stop-color="#405DE6"/>
</linearGradient>
<linearGradient id="paint1_linear" x1="18.3882" y1="30.8434" x2="34.6082" y2="30.3689" gradientUnits="userSpaceOnUse">
<stop stop-color="#FCAF45"/>
<stop offset="0.197917" stop-color="#F77737"/>
<stop offset="0.395833" stop-color="#FD1D1D"/>
<stop offset="0.59375" stop-color="#C13584"/>
<stop offset="0.796875" stop-color="#833AB4"/>
<stop offset="1" stop-color="#405DE6"/>
</linearGradient>
<linearGradient id="paint2_linear" x1="0.189453" y1="25.2688" x2="51.7737" y2="24.5813" gradientUnits="userSpaceOnUse">
<stop stop-color="#FCAF45"/>
<stop offset="0.197917" stop-color="#F77737"/>
<stop offset="0.395833" stop-color="#FD1D1D"/>
<stop offset="0.59375" stop-color="#C13584"/>
<stop offset="0.796875" stop-color="#833AB4"/>
<stop offset="1" stop-color="#405DE6"/>
</linearGradient>
<linearGradient id="paint3_linear" x1="13.4692" y1="9.98732" x2="21.5908" y2="9.87824" gradientUnits="userSpaceOnUse">
<stop stop-color="#FCAF45"/>
<stop offset="0.197917" stop-color="#F77737"/>
<stop offset="0.395833" stop-color="#FD1D1D"/>
<stop offset="0.59375" stop-color="#C13584"/>
<stop offset="0.796875" stop-color="#833AB4"/>
<stop offset="1" stop-color="#405DE6"/>
</linearGradient>
<linearGradient id="paint4_linear" x1="8.58643" y1="36.2285" x2="16.708" y2="36.1195" gradientUnits="userSpaceOnUse">
<stop stop-color="#FCAF45"/>
<stop offset="0.197917" stop-color="#F77737"/>
<stop offset="0.395833" stop-color="#FD1D1D"/>
<stop offset="0.59375" stop-color="#C13584"/>
<stop offset="0.796875" stop-color="#833AB4"/>
<stop offset="1" stop-color="#405DE6"/>
</linearGradient>
<linearGradient id="paint5_linear" x1="18.3521" y1="42.0879" x2="26.4736" y2="41.9788" gradientUnits="userSpaceOnUse">
<stop stop-color="#FCAF45"/>
<stop offset="0.197917" stop-color="#F77737"/>
<stop offset="0.395833" stop-color="#FD1D1D"/>
<stop offset="0.59375" stop-color="#C13584"/>
<stop offset="0.796875" stop-color="#833AB4"/>
<stop offset="1" stop-color="#405DE6"/>
</linearGradient>
<linearGradient id="paint6_linear" x1="30.0708" y1="40.1348" x2="38.1924" y2="40.0257" gradientUnits="userSpaceOnUse">
<stop stop-color="#FCAF45"/>
<stop offset="0.197917" stop-color="#F77737"/>
<stop offset="0.395833" stop-color="#FD1D1D"/>
<stop offset="0.59375" stop-color="#C13584"/>
<stop offset="0.796875" stop-color="#833AB4"/>
<stop offset="1" stop-color="#405DE6"/>
</linearGradient>
<linearGradient id="paint7_linear" x1="37.8833" y1="30.3692" x2="46.0049" y2="30.2601" gradientUnits="userSpaceOnUse">
<stop stop-color="#FCAF45"/>
<stop offset="0.197917" stop-color="#F77737"/>
<stop offset="0.395833" stop-color="#FD1D1D"/>
<stop offset="0.59375" stop-color="#C13584"/>
<stop offset="0.796875" stop-color="#833AB4"/>
<stop offset="1" stop-color="#405DE6"/>
</linearGradient>
</defs>
</svg>

<svg width="50" height="50" viewBox="0 0 50 50" fill="none" xmlns="http://www.w3.org/2000/svg"><path d="M33 24.023a.977.977 0 100-1.953.977.977 0 000 1.953z" fill="url(#paint0_linear)"/><path d="M33.168 27.231a.977.977 0 00-1.11.823c-.266 1.803-1.79 3.297-4.074 3.999-2.442.75-5.832.498-7.9-1.753a.977.977 0 00-1.439 1.32c1.198 1.304 2.823 2.192 4.702 2.57.664.133 1.352.2 2.045.2 1.07 0 2.15-.159 3.165-.47 3.023-.928 5.054-3.014 5.434-5.58a.977.977 0 00-.823-1.109z" fill="url(#paint1_linear)"/><path d="M46.74 18.595c-1.774-2.058-4.224-3.392-7.173-3.928 2.824-1.905 5.259-3.801 6.995-5.456 2.647-2.522 3.535-4.295 2.794-5.578-.825-1.43-3.206-1.42-7.494.031-3.622 1.226-8.136 3.354-12.707 5.994a99.11 99.11 0 00-2.338 1.393c-.568-1.603-.193-3.434 1.06-5.022.938-1.19 1.147-2.7.546-3.943C27.793.783 26.411.004 24.723 0h-.046C18.719 0 12.892 2.35 8.269 6.619 3.639 10.893.806 16.55.289 22.549c-.622 7.225 1.687 14.093 6.502 19.34C11.521 47.044 18.227 50 25.19 50c3.748 0 7.266-.686 10.457-2.038a23.533 23.533 0 007.702-5.25 23.196 23.196 0 004.764-7.127c1.074-2.517 1.66-5.186 1.697-7.716.053-3.68-1.008-6.886-3.068-9.274zM26.932 13.28a95.88 95.88 0 013.2-1.93c4.227-2.441 8.437-4.451 11.853-5.66 3.76-1.332 5.3-1.246 5.66-1.074-.032.228-.314 1.239-2.782 3.511-2.06 1.898-5.07 4.13-8.473 6.284a95.641 95.641 0 01-7.98 4.528 14.692 14.692 0 00-2.77-4.828c.424-.278.855-.556 1.292-.83zm-.291 6.525c-2.758 1.308-5.288 2.305-7.309 2.883a4.892 4.892 0 00-1.474-2.598c1.513-1.46 3.642-3.15 6.15-4.881a12.74 12.74 0 012.633 4.596zm21.216 8.036c-.14 9.718-8.845 20.206-22.667 20.206-6.416 0-12.598-2.726-16.958-7.478-4.441-4.84-6.57-11.18-5.996-17.852.986-11.45 11.054-20.764 22.442-20.764h.044c.934.002 1.643.36 1.944.983.277.573.156 1.276-.322 1.883-1.76 2.231-2.202 4.976-1.207 7.29-.524.337-1.038.676-1.535 1.012l-.007.005c-3.106 2.095-5.728 4.18-7.473 5.933a4.857 4.857 0 00-4.013.393c-2.029 1.172-4.693 6.634-5.206 7.717a.976.976 0 00.803 1.391c.54.044 2.073.155 3.779.155 2.07 0 4.395-.163 5.507-.806a4.871 4.871 0 002.33-3.193c2.394-.629 5.523-1.859 8.912-3.51a93.754 93.754 0 005.804-3.09c.991-.573 1.97-1.163 2.922-1.757l.017.001c8.14.233 10.957 6.084 10.88 11.481zm-30.381-3.977a2.926 2.926 0 01-1.46 2.354c-.924.533-4.097.605-6.702.486 1.2-2.315 2.848-5.026 3.772-5.56a2.92 2.92 0 012.823-.06 2.93 2.93 0 011.567 2.781z" fill="url(#paint2_linear)"/><path d="M17.375 6.04a3.91 3.91 0 00-3.906 3.905 3.91 3.91 0 003.906 3.907 3.91 3.91 0 003.907-3.907 3.91 3.91 0 00-3.907-3.906zm0 5.858a1.955 1.955 0 01-1.953-1.953c0-1.077.877-1.953 1.953-1.953 1.077 0 1.954.876 1.954 1.953a1.955 1.955 0 01-1.954 1.953z" fill="url(#paint3_linear)"/><path d="M12.493 32.28a3.91 3.91 0 00-3.907 3.907 3.91 3.91 0 003.907 3.906 3.91 3.91 0 003.906-3.907 3.91 3.91 0 00-3.906-3.906zm0 5.86a1.955 1.955 0 01-1.953-1.953c0-1.077.876-1.954 1.953-1.954s1.953.877 1.953 1.954a1.955 1.955 0 01-1.953 1.953z" fill="url(#paint4_linear)"/><path d="M22.258 38.14a3.91 3.91 0 00-3.906 3.906 3.91 3.91 0 003.906 3.906 3.91 3.91 0 003.907-3.906 3.91 3.91 0 00-3.907-3.906zm0 5.859a1.955 1.955 0 01-1.953-1.953c0-1.077.876-1.953 1.953-1.953s1.953.876 1.953 1.953a1.955 1.955 0 01-1.953 1.953z" fill="url(#paint5_linear)"/><path d="M33.977 36.187a3.91 3.91 0 00-3.906 3.906 3.91 3.91 0 003.906 3.906 3.91 3.91 0 003.906-3.906 3.91 3.91 0 00-3.906-3.907zm0 5.859a1.955 1.955 0 01-1.953-1.953c0-1.077.876-1.953 1.953-1.953s1.953.876 1.953 1.953a1.955 1.955 0 01-1.953 1.953z" fill="url(#paint6_linear)"/><path d="M41.79 26.42a3.91 3.91 0 00-3.907 3.907 3.91 3.91 0 003.907 3.906 3.91 3.91 0 003.906-3.906 3.91 3.91 0 00-3.906-3.906zm0 5.86a1.955 1.955 0 01-1.954-1.953c0-1.077.877-1.953 1.954-1.953s1.953.876 1.953 1.953a1.955 1.955 0 01-1.953 1.953z" fill="url(#paint7_linear)"/><defs><linearGradient id="paint0_linear" x1="32.023" y1="23.057" x2="34.054" y2="23.03" gradientUnits="userSpaceOnUse"><stop stop-color="#FCAF45"/><stop offset=".198" stop-color="#F77737"/><stop offset=".396" stop-color="#FD1D1D"/><stop offset=".594" stop-color="#C13584"/><stop offset=".797" stop-color="#833AB4"/><stop offset="1" stop-color="#405DE6"/></linearGradient><linearGradient id="paint1_linear" x1="18.388" y1="30.843" x2="34.608" y2="30.369" gradientUnits="userSpaceOnUse"><stop stop-color="#FCAF45"/><stop offset=".198" stop-color="#F77737"/><stop offset=".396" stop-color="#FD1D1D"/><stop offset=".594" stop-color="#C13584"/><stop offset=".797" stop-color="#833AB4"/><stop offset="1" stop-color="#405DE6"/></linearGradient><linearGradient id="paint2_linear" x1=".189" y1="25.269" x2="51.774" y2="24.581" gradientUnits="userSpaceOnUse"><stop stop-color="#FCAF45"/><stop offset=".198" stop-color="#F77737"/><stop offset=".396" stop-color="#FD1D1D"/><stop offset=".594" stop-color="#C13584"/><stop offset=".797" stop-color="#833AB4"/><stop offset="1" stop-color="#405DE6"/></linearGradient><linearGradient id="paint3_linear" x1="13.469" y1="9.987" x2="21.591" y2="9.878" gradientUnits="userSpaceOnUse"><stop stop-color="#FCAF45"/><stop offset=".198" stop-color="#F77737"/><stop offset=".396" stop-color="#FD1D1D"/><stop offset=".594" stop-color="#C13584"/><stop offset=".797" stop-color="#833AB4"/><stop offset="1" stop-color="#405DE6"/></linearGradient><linearGradient id="paint4_linear" x1="8.586" y1="36.228" x2="16.708" y2="36.12" gradientUnits="userSpaceOnUse"><stop stop-color="#FCAF45"/><stop offset=".198" stop-color="#F77737"/><stop offset=".396" stop-color="#FD1D1D"/><stop offset=".594" stop-color="#C13584"/><stop offset=".797" stop-color="#833AB4"/><stop offset="1" stop-color="#405DE6"/></linearGradient><linearGradient id="paint5_linear" x1="18.352" y1="42.088" x2="26.474" y2="41.979" gradientUnits="userSpaceOnUse"><stop stop-color="#FCAF45"/><stop offset=".198" stop-color="#F77737"/><stop offset=".396" stop-color="#FD1D1D"/><stop offset=".594" stop-color="#C13584"/><stop offset=".797" stop-color="#833AB4"/><stop offset="1" stop-color="#405DE6"/></linearGradient><linearGradient id="paint6_linear" x1="30.071" y1="40.135" x2="38.192" y2="40.026" gradientUnits="userSpaceOnUse"><stop stop-color="#FCAF45"/><stop offset=".198" stop-color="#F77737"/><stop offset=".396" stop-color="#FD1D1D"/><stop offset=".594" stop-color="#C13584"/><stop offset=".797" stop-color="#833AB4"/><stop offset="1" stop-color="#405DE6"/></linearGradient><linearGradient id="paint7_linear" x1="37.883" y1="30.369" x2="46.005" y2="30.26" gradientUnits="userSpaceOnUse"><stop stop-color="#FCAF45"/><stop offset=".198" stop-color="#F77737"/><stop offset=".396" stop-color="#FD1D1D"/><stop offset=".594" stop-color="#C13584"/><stop offset=".797" stop-color="#833AB4"/><stop offset="1" stop-color="#405DE6"/></linearGradient></defs></svg>
